static/img/icons/alert.svg

<svg xmlns="http://www.w3.org/2000/svg" xmlns:xlink="http://www.w3.org/1999/xlink" viewBox="0 0 32 32" version="1.1">
<g id="surface1">
<path style=" " d="M 16 1.59375 L 1.59375 16 L 16 30.40625 L 30.40625 16 Z M 16 4.40625 L 27.59375 16 L 16 27.59375 L 4.40625 16 Z M 15 10 L 15 18 L 17 18 L 17 10 Z M 15 20 L 15 22 L 17 22 L 17 20 Z "></path>
</g>
</svg>

<svg xmlns="http://www.w3.org/2000/svg" viewBox="0 0 32 32"><path d="M16 1.594L1.594 16 16 30.406 30.406 16zm0 2.812L27.594 16 16 27.594 4.406 16zM15 10v8h2v-8zm0 10v2h2v-2z"/></svg>
